packages/ffe-icons/icons/open/400/sm/move_selection_left.svg

<svg xmlns="http://www.w3.org/2000/svg" height="20" viewBox="0 -960 960 960" width="20"><path d="M168-240q-29.7 0-50.85-21.15Q96-282.3 96-312v-336q0-29.7 21.15-50.85Q138.3-720 168-720h336q29.7 0 50.85 21.15Q576-677.7 576-648v336q0 29.7-21.15 50.85Q533.7-240 504-240H168Zm336-72v-336H168v336h336Zm180.21 72q-15.21 0-25.71-10.29t-10.5-25.5q0-15.21 10.29-25.71t25.5-10.5q15.21 0 25.71 10.29t10.5 25.5q0 15.21-10.29 25.71t-25.5 10.5Zm144 0q-15.21 0-25.71-10.29t-10.5-25.5q0-15.21 10.29-25.71t25.5-10.5q15.21 0 25.71 10.29t10.5 25.5q0 15.21-10.29 25.71t-25.5 10.5Zm0-204q-15.21 0-25.71-10.29t-10.5-25.5q0-15.21 10.29-25.71t25.5-10.5q15.21 0 25.71 10.29t10.5 25.5q0 15.21-10.29 25.71t-25.5 10.5Zm0-204q-15.21 0-25.71-10.29t-10.5-25.5q0-15.21 10.29-25.71t25.5-10.5q15.21 0 25.71 10.29t10.5 25.5q0 15.21-10.29 25.71t-25.5 10.5Zm-144 0q-15.21 0-25.71-10.29t-10.5-25.5q0-15.21 10.29-25.71t25.5-10.5q15.21 0 25.71 10.29t10.5 25.5q0 15.21-10.29 25.71t-25.5 10.5ZM336-480Z"/></svg>

<svg xmlns="http://www.w3.org/2000/svg" height="20" viewBox="0 -960 960 960" width="20"><path d="M168-240q-29.7 0-50.85-21.15Q96-282.3 96-312v-336q0-29.7 21.15-50.85Q138.3-720 168-720h336q29.7 0 50.85 21.15Q576-677.7 576-648v336q0 29.7-21.15 50.85Q533.7-240 504-240H168Zm336-72v-336H168v336h336Zm180.211 72Q669-240 658.5-250.289q-10.5-10.29-10.5-25.5Q648-291 658.289-301.5q10.29-10.5 25.5-10.5Q699-312 709.5-301.711q10.5 10.29 10.5 25.5Q720-261 709.711-250.5q-10.29 10.5-25.5 10.5Zm144 0Q813-240 802.5-250.289q-10.5-10.29-10.5-25.5Q792-291 802.289-301.5q10.29-10.5 25.5-10.5Q843-312 853.5-301.711q10.5 10.29 10.5 25.5Q864-261 853.711-250.5q-10.29 10.5-25.5 10.5Zm0-204Q813-444 802.5-454.289q-10.5-10.29-10.5-25.5Q792-495 802.289-505.5q10.29-10.5 25.5-10.5Q843-516 853.5-505.711q10.5 10.29 10.5 25.5Q864-465 853.711-454.5q-10.29 10.5-25.5 10.5Zm0-204Q813-648 802.5-658.289q-10.5-10.29-10.5-25.5Q792-699 802.289-709.5q10.29-10.5 25.5-10.5Q843-720 853.5-709.711q10.5 10.29 10.5 25.5Q864-669 853.711-658.5q-10.29 10.5-25.5 10.5Zm-144 0Q669-648 658.5-658.289q-10.5-10.29-10.5-25.5Q648-699 658.289-709.5q10.29-10.5 25.5-10.5Q699-720 709.5-709.711q10.5 10.29 10.5 25.5Q720-669 709.711-658.5q-10.29 10.5-25.5 10.5ZM336-480Z"/></svg>
